!!!!SEGMENT: Sil2019-Inviolata_integra_et_casta_es--Bologna_Q20.krn
!!!id: Sil2019
!!!AGN: Motet
!!!voices: 4
!!!COM: Andreas de Silva
!!!OTL: Inviolata, integra et casta es (Bologna Q20)
**kern	**kern	**kern	**kern
*part4	*part3	*part2	*part1
*staff4	*staff3	*staff2	*staff1
*I"Bassus	*I"Tenor	*I"Altus	*I"Superius
*I'B	*I'T	*I'A	*I'S
*clefF4	*clefGv2	*clefGv2	*clefG2
*k[b-]	*k[b-]	*k[b-]	*k[b-]
*F:	*F:	*F:	*F:
*M2/1	*M2/1	*M2/1	*M2/1
*met(C|)	*met(C|)	*met(C|)	*met(C|)
!!section: Prima pars: Inviolata, integra et casta es
!!!OMD: Prima pars: Inviolata, integra et casta es
0F	0F	0c	0f
=1	=1	=1	=1
1D	1A	1d	1f
1D	1B-y	1d	1f
=2	=2	=2	=2
0C	0c	0e	0g
=3	=3	=3	=3
0F;	0c;	0f;	0a;
=4	=4	=4	=4
1.G	1r	0r	0b-y
.	[1d	.	.
2G	.	.	.
=5	=5	=5	=5
2F	2d]	0r	0a
2D	2d	.	.
1F	2c	.	.
.	2A	.	.
=6	=6	=6	=6
1C	1c	1r	0g
2r	1G	[1d	.
2G	.	.	.
=7	=7	=7	=7
2F	2r	2d]	0a
2D	1f	2d	.
2F	.	2c	.
2F	2f	2A	.
=8	=8	=8	=8
0C	2e	1c	0g
.	2c	.	.
.	1e	2.G	.
.	.	4A	.
=9	=9	=9	=9
2r	1d	4B-y	0f
.	.	4c	.
1D	.	2B-y	.
.	1r	2A	.
2BB-y	.	[2d	.
=10	=10	=10	=10
1E-i	2.G	2d]	2r
.	.	2c	1g
.	4A	.	.
1D	2B-y	[1d	.
.	[2A	.	2f
=11	=11	=11	=11
2r	2A]	0d_	1b-y
1G	2G	.	.
.	1A	.	1a
2F	.	.	.
=12	=12	=12	=12
1B-y	2r	1d]	2.d
.	1G	.	.
.	.	.	4e
1A	.	2r	4f
.	.	.	4g
.	2F	2c	[2a
=13	=13	=13	=13
1r	1B-y	1d	2a]
.	.	.	2g
2r	1A	2e	2.a
[2D	.	[2f	.
.	.	.	4g
=14	=14	=14	=14
2D]	0r	4f]	2a
.	.	4e	.
2BB-y	.	1d	1b-y
1E-i	.	.	.
.	.	2c	4a
.	.	.	4g
=15	=15	=15	=15
[0D	2r	[0d	2b-y
.	2F	.	2a
.	1A	.	1f
=16	=16	=16	=16
0D]	1B-y	0d]	2r
.	.	.	2f
.	1A	.	1a
=17	=17	=17	=17
2r	1G	1r	1b-y
2.G	.	.	.
.	2.A	2r	1a
4D	.	.	.
2F	.	2c	.
.	4B-y	.	.
=18	=18	=18	=18
1E	4c	1e	1g
.	4d	.	.
.	2c	.	.
1D	2A	1f	1a
.	2F	.	.
=19	=19	=19	=19
1r	1c	1e	1g
2r	2F	1d	1f
[2D	[2B-y	.	.
=20	=20	=20	=20
4D]	4B-]	1e	0r
4AA	4A	.	.
2C	1A	.	.
1BB-y	.	1d	.
.	2G	.	.
=21	=21	=21	=21
1AA	1A	1c	1cc
1r	2D	2r	2f
.	[2G	[2d	[2b-y
=22	=22	=22	=22
1r	2G]	4d]	4b-]
.	.	4A	4a
.	2F	2c	1a
2r	2D	1B-y	.
[2G	2E	.	2g
=23	=23	=23	=23
4G]	2F	2A	2a
4D	.	.	.
2F	1A	1d	2f
1E	.	.	1g
.	2G	2c	.
=24	=24	=24	=24
1D	1A	2d	1f
.	.	2.f	.
1A	2r	.	1r
.	.	4g	.
.	2c	2e	.
=25	=25	=25	=25
1D	2d	1d	0a
.	1f	.	.
2r	.	1c	.
2F	4e	.	.
.	4d	.	.
=26	=26	=26	=26
2C	1e	2r	1g
2E	.	2c	.
1D	2f	2d	1f
.	2F	[2f	.
=27	=27	=27	=27
1C	1c	2f]	0g
.	.	4e	.
.	.	4d	.
2r	1c	1e	.
2C	.	.	.
=28	=28	=28	=28
2D	1F	2f	1f
1F	.	4A	.
.	.	4G	.
.	1r	4A	1a
.	.	4B-y	.
4E	.	[2c	.
4D	.	.	.
=29	=29	=29	=29
1E	1.c	4c]	1g
.	.	4B-y	.
.	.	2G	.
1F	.	2A	1f
.	2d	2F	.
=30	=30	=30	=30
0C	1e	0c	0g
.	1e	.	.
=31	=31	=31	=31
1FF	1c	1A	1f
1r	1r	1r	1r
=32	=32	=32	=32
0F	0c	0f	0a
=33	=33	=33	=33
1C	1c	1e	1g
1D	1F	1d	1f
=34	=34	=34	=34
0C	0c	0e	0g
=35	=35	=35	=35
1FF	0A	1c	1f
2r	.	2F	1f
[2F	.	[2A	.
=36	=36	=36	=36
2F]	2r	4A]	0a
.	.	4B-y	.
2.A	1F	2.c	.
4B-y	.	4B-y	.
[2c	[2A	4A	.
.	.	4G	.
=37	=37	=37	=37
4c]	4A]	2F	1cc
4B-y	4B-y	.	.
4A	1c	1f	.
4G	.	.	.
2F	.	.	2a
[2G	2B-y	2d	[2b-y
=38	=38	=38	=38
2G]	2c	2e	4b-]
.	.	.	4a
2F	2d	2f	2a
1G	1B-y	2.d	1g
.	.	4e	.
=39	=39	=39	=39
1.D	1A	0f	[0a
.	1d	.	.
2E	.	.	.
=40	=40	=40	=40
1F	1c	2r	0a]
.	.	2.F	.
2r	1r	.	.
.	.	4G	.
[2FF	.	4A	.
.	.	4B-y	.
=41	=41	=41	=41
4FF]	0A	2c	1r
4GG	.	.	.
4AA	.	2F	.
4BB-y	.	.	.
2AA	.	2.c	1cc
2FF	.	.	.
.	.	4d	.
=42	=42	=42	=42
1C	1G	4e	2.cc
.	.	4f	.
.	.	2g	.
.	.	.	4b-y
1r	1F	2c	4a
.	.	.	4g
.	.	2f	2a
=43	=43	=43	=43
1r	0G	2e	2g
.	.	1d	1f
2r	.	.	.
2G	.	4c	2e
.	.	4B-y	.
=44	=44	=44	=44
2A	1F	1A	1f
2.c	.	.	.
.	1F	2A	1r
4B-y	.	.	.
4A	.	[2c	.
4G	.	.	.
=45	=45	=45	=45
2.F	1A	4c]	0r
.	.	4B-y	.
.	.	4A	.
4G	.	4G	.
2A	1c	2F	.
[2F	.	2A	.
=46	=46	=46	=46
2F]	1B-y	1G	0r
2E	.	.	.
2F	2A	2F	.
2BB-y	[2B-y	[2f	.
=47	=47	=47	=47
2BB-y	4B-]	2f]	0r
.	4A	.	.
2C	1A	2e	.
2D	.	1d	.
2E	2G	.	.
=48	=48	=48	=48
1F	2A	1c	1f
.	1c	.	.
1r	.	2r	1f
.	2B-y	2d	.
=49	=49	=49	=49
0r	2A	4e	1a
.	.	4d	.
.	2A	4e	.
.	.	4f	.
.	1G	2g	1b-y
.	.	2G	.
=50	=50	=50	=50
0r	2r	4A	1a
.	.	4G	.
.	2.F	4A	.
.	.	4B-y	.
.	.	2.c	1a
.	4G	.	.
.	4A	.	.
.	4B-y	4d	.
=51	=51	=51	=51
0r	2c	2e	1g
.	2G	2.d	.
.	2B-y	.	1f
.	.	4c	.
.	[2A	2c	.
=52	=52	=52	=52
0r	2A]	2F	1r
.	4G	1f	.
.	4F	.	.
.	1c	.	1g
.	.	2e	.
=53	=53	=53	=53
0r	2.F	2c	1a
.	.	2.d	.
.	4D	.	.
.	2E	.	2g
.	.	4c	.
.	2F	2c	[2a
=54	=54	=54	=54
0r	1D	2F	2a]
.	.	1f	4g
.	.	.	4f
.	1C	.	1g
.	.	2e	.
=55	=55	=55	=55
2.F	2r	1f	2f
.	2.c	.	2a
4D	.	.	.
2E	.	2r	2g
.	4B-y	.	.
2F	4A	[2c	[2a
.	4G	.	.
=56	=56	=56	=56
1D	2A	2c]	4a]
.	.	.	4g
.	2B-y	2B-y	1f
1C	1G	2c	.
.	.	2c	2e
=57	=57	=57	=57
2D	2r	2A	1f
2.BB-y	2F	1d	.
.	1F	.	1r
4C	.	.	.
4D	.	2d	.
4E	.	.	.
=58	=58	=58	=58
1F	1A	1c	1f
1BB-y	1B-y	2r	1f
.	.	2d	.
=59	=59	=59	=59
0r	1A	4e	1a
.	.	4d	.
.	.	4e	.
.	.	4f	.
.	2r	1g	1b-y
.	2G	.	.
=60	=60	=60	=60
1F	4A	1c	2.a
.	4G	.	.
.	4A	.	.
.	4B-y	.	4g
1F	1c	[1f	4a
.	.	.	4b-y
.	.	.	[2cc
=61	=61	=61	=61
1A	1F	2f]	4cc]
.	.	.	4b-y
.	.	2e	1a
1B-y	1r	1d	.
.	.	.	2g
=62	=62	=62	=62
1A	2r	1c	4a
.	.	.	4g
.	2.F	.	4a
.	.	.	4b-y
[1A	.	1r	1cc
.	4G	.	.
.	4A	.	.
.	4B-y	.	.
=63	=63	=63	=63
1A]	2c	2r	1f
.	2F	2c	.
1G	1B-y	2d	2r
.	.	2e	2g
=64	=64	=64	=64
1F	1A	2.f	1a
.	.	4e	.
[1G	1r	2d	2g
.	.	[2c	4f
.	.	.	4e
=65	=65	=65	=65
1G]	1r	2c]	4d
.	.	.	4c
.	.	2B-y	2d
1A	2r	2.c	2c
.	2c	.	2f
.	.	4d	.
=66	=66	=66	=66
2G	2B-y	2e	2g
2F	1c	1f	2a
1G	.	.	2.b-y
.	2B-y	2e	.
.	.	.	4cc
=67	=67	=67	=67
*M3/1	*M3/1	*M3/1	*M3/1
*met(O|/3)	*met(O|/3)	*met(O|/3)	*met(O|/3)
1.F	0c	1.f	[0.a
2G	.	2e	.
1A	1r	1c	.
=68	=68	=68	=68
1.D	1F	0d	0a]
.	1F	.	.
2E	.	.	.
1F	1A	1c	1r
=69	=69	=69	=69
2BB-y	1B-y	0f	1f
2C	.	.	.
2D	0A	.	1f
2E	.	.	.
1F	.	1f	1a
=70	=70	=70	=70
1G	1G	1d	1b-y
1D	1A	1.f	0a
1F	[1c	.	.
.	.	4e	.
.	.	4d	.
=71	=71	=71	=71
1C	1c]	1e	0g
1G	1B-y	1d	.
1F	[1A	1f	1a
=72	=72	=72	=72
1r	2A]	1e	0cc
.	2B-y	.	.
1F	1c	0f	.
1BB-y	1d	.	1b-y
=73	=73	=73	=73
1F	1.c	1.f	1.a
0G	.	.	.
.	4B-y	4e	4g
.	4A	4d	4f
.	1B-y	1e	1g
=74	=74	=74	=74
*M2/1	*M2/1	*M2/1	*M2/1
*met(C|)	*met(C|)	*met(C|)	*met(C|)
2.F	1c	1f	1a
4G	.	.	.
2A	1d	2f	1r
[2D	.	[2f	.
=75	=75	=75	=75
4D]	2c	4f]	1f
4E	.	4e	.
2F	2A	4d	.
.	.	4c	.
1BB-y	2.B-y	1d	1f
.	4A	.	.
=76	=76	=76	=76
1F	2F	1c	1a
.	2f	.	.
1G	2e	1r	1b-y
.	[2d	.	.
=77	=77	=77	=77
2.D	2d]	1F	2a
.	4c	.	4f
4E	4B-y	.	4g
4F	1A	1F	4a
4G	.	.	4b-y
4A	.	.	2cc
4B-y	.	.	.
=78	=78	=78	=78
2c	0r	1A	2f
2F	.	.	1a
1G	.	1B-y	.
.	.	.	2g
=79	=79	=79	=79
1F	1F	2A	2a
.	.	4F	2.cc
.	.	4G	.
1r	1F	4A	.
.	.	4B-y	4b-y
.	.	[2c	4a
.	.	.	4g
=80	=80	=80	=80
0r	1A	4c]	2f
.	.	4B-y	.
.	.	1A	2e
.	1B-y	.	1d
.	.	2G	.
=81	=81	=81	=81
2r	2A	4A	1c
.	.	4G	.
2.FF	4F	4A	.
.	4G	4B-y	.
.	4A	2.c	1r
4GG	4B-y	.	.
4AA	[2c	.	.
4BB-y	.	4d	.
=82	=82	=82	=82
2C	4c]	2e	0r
.	4B-y	.	.
2D	1A	2f	.
1BB-y	.	1d	.
.	2G	.	.
=83	=83	=83	=83
1AA	2A	2.c	1r
.	2.c	.	.
.	.	4d	.
1r	.	2e	2r
.	4B-y	.	.
.	4A	[2f	[2cc
.	4G	.	.
=84	=84	=84	=84
1FF	2F	2f]	4cc]
.	.	.	4b-y
.	2.c	4e	1a
.	.	4d	.
1FF	.	1c	.
.	4B-y	.	.
.	[2A	.	2g
=85	=85	=85	=85
1AA	4A]	2r	4f
.	4G	.	4e
.	4F	2c	1a
.	4E	.	.
1BB-y	1D	2.d	.
.	.	.	2g
.	.	4e	.
=86	=86	=86	=86
1AA	4C	2f	1a
.	4D	.	.
.	4E	2e	.
.	4F	.	.
1AA	2E	2A	2r
.	[2F	2c	2f
=87	=87	=87	=87
1GG	2F]	1B-y	1g
.	2E	.	.
1FF	2F	[1A	2.a
.	[2c	.	.
.	.	.	8gL
.	.	.	8fJ
=88	=88	=88	=88
1AA	4c]	1A]	2e
.	4B-y	.	.
.	1A	.	1cc
[1C	.	1r	.
.	4G	.	4b-y
.	4F	.	4a
=89	=89	=89	=89
2C]	2E	0r	2g
4BB-y	1A	.	2cc
4AA	.	.	.
1BB-y	.	.	1dd
.	2G	.	.
=90	=90	=90	=90
2.AA	1A	0e	1cc
4BB-y	.	.	.
4C	1G	.	[1cc
4D	.	.	.
2C	.	.	.
=91	=91	=91	=91
2FF	2r	1f	2cc]
2F	2c	.	4b-y
.	.	.	4a
2G	2c	1e	1b-y
2G	2B-y	.	.
=92	=92	=92	=92
0F;	0c;	0f;	0a;
=93	=93	=93	=93
0F	0c	0f	0a
=94	=94	=94	=94
1C	1c	1e	1g
1C	1c	1e	1g
=95	=95	=95	=95
0D	0A	[0d	[0f
=96	=96	=96	=96
0BB-y;	0B-y;	0d;]	0f;]
=97	=97	=97	=97
0F	0c	0f	0a
=98	=98	=98	=98
1G	1B-y	1d	1b-y
1G	1B-y	1e	2a
.	.	.	2g
=99	=99	=99	=99
0F;	0c;	0f;	0a;
=100	=100	=100	=100
0F	0A	0f	0cc
=101	=101	=101	=101
1C	1G	1e	1cc
1C	1G	1e	1cc
=102	=102	=102	=102
0FF;	0F;	0c;	0a;
=103	=103	=103	=103
0r	0r	1F	0r
.	.	1G	.
=104	=104	=104	=104
0r	0r	2A	1f
.	.	1B-y	.
.	.	.	1g
.	.	[2c	.
=105	=105	=105	=105
0r	1F	2c]	2a
.	.	1d	2a
.	1G	.	2b-y
.	.	4c	2b-y
.	.	4B-y	.
=106	=106	=106	=106
1F	1A	2c	1a
.	.	1d	.
1G	1r	.	1g
.	.	[2e	.
=107	=107	=107	=107
2A	1A	4e]	2.cc
.	.	4c	.
2.F	.	1f	.
.	.	.	4b-y
.	1c	.	4a
4E	.	.	4g
2C	.	2e	[2a
=108	=108	=108	=108
2D	1B-y	1d	2a]
2E	.	.	2g
1F	1A	[1c	1f
=109	=109	=109	=109
1C	2G	1c]	1e
.	1A	.	.
1D	.	1F	1a
.	4G	.	.
.	4F	.	.
=110	=110	=110	=110
1C	2.E	2r	1cc
.	.	2c	.
.	4F	.	.
2r	4G	2d	1b-y
.	4A	.	.
2G	4B-y	2e	.
.	4c	.	.
=111	=111	=111	=111
2.F	4d	1f	1a
.	4e	.	.
.	2.d	.	.
4D	.	.	.
2E	.	1r	2g
.	4c	.	.
2F	[2c	.	[2a
=112	=112	=112	=112
1D	2c]	2r	2a]
.	2B-y	2F	4g
.	.	.	4f
1C	2.c	2G	1e
.	.	2A	.
.	4B-y	.	.
=113	=113	=113	=113
1FF	4A	2F	0r
.	4G	.	.
.	2A	2c	.
1r	2F	1d	.
.	2B-y	.	.
=114	=114	=114	=114
2r	2A	1c	0r
2C	2.G	.	.
1D	.	2.F	.
.	4F	.	.
.	[2F	.	.
.	.	4G	.
=115	=115	=115	=115
1C	2F]	2A	2r
.	2E	2.G	2g
1FF	1F	.	1a
.	.	4F	.
.	.	[2F	.
=116	=116	=116	=116
0r	2r	2F]	1g
.	2G	2E	.
.	1A	2F	1c
.	.	2c	.
=117	=117	=117	=117
1r	1G	1d	2r
.	.	.	2g
2r	2C	1c	4a
.	.	.	4g
2C	[2G	.	[2cc
=118	=118	=118	=118
1D	4G]	1F	2cc]
.	4F	.	.
.	1F	.	2b-y
1C	.	[1c	2cc
.	2E	.	2g
=119	=119	=119	=119
2FF	1F	1c]	1a
1F	.	.	.
.	2r	1c	1g
2E	2G	.	.
=120	=120	=120	=120
1F	1A	2r	2c
.	.	2c	1cc
1r	1G	1d	.
.	.	.	2b-y
=121	=121	=121	=121
2r	0r	1c	2g
2C	.	.	1a
2D	.	1F	.
[2F	.	.	4g
.	.	.	4f
=122	=122	=122	=122
2F]	2r	1c	1g
2E	2G	.	.
1F	2A	2r	1f
.	[2c	2c	.
=123	=123	=123	=123
1D	2c]	2d	1r
.	2B-y	1f	.
1C	1c	.	2r
.	.	2e	2g
=124	=124	=124	=124
0r	1A	1f	2a
.	.	.	1cc
.	1G	1d	.
.	.	.	2b-y
=125	=125	=125	=125
2r	2A	1c	1cc
2.FF	4F	.	.
.	4G	.	.
.	4A	2.c	1a
4GG	4B-y	.	.
4AA	[2c	.	.
4BB-y	.	4d	.
=126	=126	=126	=126
2C	2c]	4e	2g
.	.	4f	.
2GG	2B-y	2g	2b-y
2AA	2.c	2c	2a
2BB-y	.	2d	[2g
.	4B-y	.	.
=127	=127	=127	=127
2C	2A	2c	4g]
.	.	.	4f
2D	4G	2B-y	1f
.	4F	.	.
1C	1G	[1cl	.
.	.	.	2e
=128	=128	=128	=128
00FFl	00Fl	00c]	00fl
==	==	==	==
*-	*-	*-	*-
!!!system-decoration: [*]
!!!RDF**kern: i = editorial accidental
!!!RDF**kern: l = terminal long
!!!ENC: Benjamin Ory
!!!END: 2024/4/10
!!!EED: Benjamin Ory
!!!EEV: 2024/04/10
!!!YEC: Copyright 2024 Benjamin Ory, All Rights Reserved
!!!ONB: Translated from MusicXML on 2024/04/10